X: 1
T: The Old Dudeen
R: reel
M: 4/4
L: 1/8
K: Bmin
|:fe|dBBA FEFA|dcde fgfe|dBBA ~F3 A|BdcA B2:|
Bc|:d2 Bc dcde|fbbf afef|dBBc dcde|fbaf e2 de|
fB~B2 dcde|fbbf a2 fa|bfbf abaf|bf~f2 eafe:|


Tune 3168	Setting 16264

